src/facebook.svg

<svg viewBox="0 0 16 16" fill="none" xmlns="http://www.w3.org/2000/svg"><path d="M15 8C15 4.134 11.866 1 8 1C4.134 1 1 4.134 1 8C1 11.4939 3.5598 14.3898 6.90625 14.915V10.0234H5.12891V8H6.90625V6.45781C6.90625 4.70344 7.9513 3.73437 9.55025 3.73437C10.3161 3.73437 11.1172 3.87109 11.1172 3.87109V5.59375H10.2345C9.36493 5.59375 9.09375 6.13334 9.09375 6.68691V8H11.0352L10.7248 10.0234H9.09375V14.915C12.4402 14.3898 15 11.4939 15 8Z" fill="#111111"/></svg>

<svg viewBox="0 0 16 16" fill="none" xmlns="http://www.w3.org/2000/svg"><path d="M15 8a7 7 0 1 0-8.094 6.915v-4.892H5.13V8h1.777V6.458c0-1.755 1.045-2.724 2.644-2.724.766 0 1.567.137 1.567.137v1.723h-.883c-.87 0-1.14.54-1.14 1.093V8h1.941l-.31 2.023H9.094v4.892A7.002 7.002 0 0 0 15 8Z" fill="#111111"/></svg>
